X: 1
T: Princess Beatrice
M: 4/4
L: 1/8
R: hornpipe
K: Gmaj
BA|GB,EG FB,DF|EB,EG BAGF|GBed cBAG|FEDC B,AGF|
GB,EG FB,DF|EB,EG BAGF|d^c=cA GEDF|G2 B2 G2::DC|
B,GCG DGCG|B,DGB dgdB|B,ACA DAEA|FAcA FDCA,|
B,GCG DGCG|B,DGB dgdB|d^c=cA GEDF|G2 B2 G2:|
